X:1
T:Title
%%score ( 1 2 ) { ( 3 4 ) | 5 }
L:1/8
Q:1/4=100
M:3/4
K:F
V:1 treble nm="Grand Piano, Piano"
V:2 treble 
V:3 bass nm="Grand Piano, Piano"
V:4 bass 
V:5 bass 
V:1
 [CF]4 [EG]2 | z2 z G [FA]2 | [GB]4 [FA]2 | [EG]2 [DF]2 [EG]2 | F2 z2 B2 | z2 z2 A2 | G2 z2 z2 | %7
w: 1.~Come,~ thou~|* ex|pec ted~|Je * sus,~|born~ to~|thy~|peo|
 F6 | [CF]4 [EG]2 | z2 z G [FA]2 | [GB]4 [FA]2 | [EG]2 [DF]2 [EG]2 | F2 z2 B2 | z2 z2 A2 | %14
w: free;~|from~ our~|* and~|sins~ re|lease~ * us,~|let~ us~|our~|
 G2 z2 z2 | F6 | [Ec]4 [Ec]2 | c2 B2 [FA]2 | B2- [EB]2 [DB]2 | [EB]2 [FA]2 [CG]2 | [CA]4 [FA]2 | %21
w: rest~|thee.~|Is rael's~|strength~ * and~|con * so|la * tion,~|hope~ of~|
 [FA]2 [GB]2 [Ac]2 | [Ac]2 [GB]2 [FA]2 | G4- [EG]2 | c2 A2 [Ac]2 | [GB]2 G2 [GB]2 | %26
w: all~ * the~|earth~ * thou~|art;~ *|dear~ * de|sire~ * of~|
 [FA]2 [CF]2 [FA]2 | G[EA] BA [CG]2 | c4 z2 | [Dd]2 [Fc]2 [FB]2 | [FA]4 [EG]2 | F6 |] %32
w: ev * ery~|na * * * tion,~|joy~|ev * ery~|long ing~|heart.~|
V:2
 x6 | F4 z2 | x6 | x6 | c2- [Cc]2 DE | [FA]4 FE | D2- [DF]2 [EG]2 | x6 | x6 | F4 z2 | x6 | x6 | %12
 c2- [Cc]2 DE | [FA]4 FE | D2- [DF]2 [EG]2 | x6 | x6 | F4 z2 | F2 z2 z2 | x6 | x6 | x6 | x6 | %23
 F4 z2 | F4 z2 | x6 | x6 | z2 F2 z2 | C2 F2 [_Ec]2 | x6 | x6 | x6 |] %32
V:3
 A,4 z2 | A,3 B,[K:treble] C2 | D2 C2 C2 | C2 A,2 C2 | C4 C2 | C4 C2 | B,2 A,2 C2 | A,6 | A,4 z2 | %9
 A,3 B,[K:treble] C2 | D2 C2 C2 | C2 A,2 C2 | C4 C2 | C4 C2 | B,2 A,2 C2 | A,6 | C4 C2 | %17
 F,2 G,2 A,2 | G,4 G,2 | G,2 C2 B,2 | A,4[K:treble] C2 | D4 C2 | D4 D2 | G,6 | C4 D2 | D4 C2 | %26
 C2[K:bass] A,2 =B,2 | C2 z2 z2 | A,4[K:treble] C2 | B,2 C2 D2 | C4 B,2 | A,6 |] %32
V:4
 z2 A,,2 G,2 | x4[K:treble] x2 | x6 | x6 | x6 | x6 | x6 | x6 | z2 A,,2 G,2 | x4[K:treble] x2 | x6 | %11
 x6 | x6 | x6 | x6 | x6 | x6 | x6 | x6 | x6 | x4[K:treble] x2 | x6 | x6 | x6 | x6 | x6 | %26
 x2[K:bass] x4 | z C, B,2 B,2 | x4[K:treble] x2 | x6 | x6 | x6 |] %32
V:5
 F,,2 z2 C,2 | F,4 F,2 | F,2 E,2 F,2 | C,2 D,2 C,2 | A,4 G,2 | F,4 A,,2 | B,,2 D,2 C,2 | F,6 | %8
 F,,2 z2 C,2 | F,4 F,2 | F,2 E,2 F,2 | C,2 D,2 C,2 | A,4 G,2 | F,4 A,,2 | B,,2 D,2 C,2 | F,6 | %16
 A,4 A,2 | D,4 D,2 | z6 | C,2 D,2 E,2 | F,4 E,2 | D,4 A,,2 | G,,4 B,,2 | C,6 | A,4 F,2 | %25
 F,2 E,D, E,2 | F,2 E,2 D,2 | .E,2 D,2 E,2 | F,4 A,,2 | B,,2 A,,2 B,,2 | C,4 C,2 | [F,,F,]6 |] %32

